X: 3
T:Barn Dance 2
% Nottingham Music Database
Y:AABA
S:McCusker Brothers
M:4/4
L:1/8
R:Hornpipe
K:G
P:A
d2|"G"D2EF G2B_B|"G"(3ABAGA Bd3|"C"g2fe "G"dBGB|"Am"AEFG "D7"A2d2|
"G"D2EF G2B_B|"G"(3ABAGA Bd3|"C"g2fe "G"dBGB|"D7"AGAB "G"G2:|
P:B
(3def|"G"gfga gdBc|"G"dedB "D7"d2(3def|
"G"gfga gdBc|"G"dedB "D7"A2ef|"G"gfga gdBc|
"G"dedB "D7"d2(3def|"G"(3gag(3fgf "C"(3efe(3ded|"Am"(3cdc(3BcB"D7"A2


